X:1
T:Time
T:Time
T:From Inception
T:Hans Zimmer
C:Hans Zimmer
%%score { ( 1 3 ) | ( 2 4 ) }
L:1/8
Q:1/4=60
M:4/4
K:C
V:1 bass nm="Piano" snm="Pno."
V:3 bass 
V:2 bass 
V:4 bass 
V:1
!pp! C,8 | G,8 | B,,8 | ^F,8 | C,8 | B,8 | B,,8 | ^F,8 | C,8 | [B,,G,]8 | B,,8 | [A,,^F,]8 | C,8 | %13
 [C,B,]8 | B,,8 | [A,,^F,]8 |!p! ([A,,C,]4 B,,2 A,,2) | ([E,G,]4 ^F,2 E,2) | %18
 ([G,,B,,]4 A,,2 G,,2) | ([D,^F,]4 E,2 D,2) | ([A,,C,]4 B,,2 A,,2) | ([E,G,B,]4 [^F,A,]2 [E,G,]2) | %22
 ([G,,B,,]4 A,,2 G,,2) | ([D,^F,]4 E,2 D,2) ||!mp! z2!<(! (B,2 A,4)!<)! |[K:treble]!>(! G,8!>)! | %26
!<(! z2 A,2 G,4!<)! |!>(! [^F,^F]8!>)! |!<(! C8!<)! |!>(! [B,GB]8!>)! |!<(! B,8!<)! | %31
!>(! [^F,^F]8!>)! ||!<(! [Cc]8!<)! |!>(! [Gg]8!>)! |!<(! [B,B]8!<)! |!>(! [^F^f]8!>)! | %36
!<(! [Cc]8!<)! |!>(! [Bgb]8!>)! |!<(! [B,B]8!<)! | [^F^f]8 ||!mf! [Cc]8 | [Gg]8 | [B,B]8 | %43
 [^F^f]8 | [Cc]8 | [Bb]8 | [B,B]8 | [^F^f]8 ||!<(! [Cc]4 [B,B]2 E2!<)! | %49
!>(! [Gg]4 ([^F^f]2 [B,B]2)!>)! |!<(! [B,B]4 [A,A]2 D2!<)! |!>(! [^F^f]4 [Ee]2 [A,A]2!>)! | %52
!<(! [Cc]4 [B,B]2 E2!<)! |!>(! [Bb]4 [Gg]2 [Cc]2!>)! |!<(! [B,B]4 [A,A]2 D2!<)! | %55
!>(! [^F^f]4 [Ee]2 [A,A]2!>)! ||!mp! c4!pp! c'4 |!mp! g4!pp! g'4 |!mp! B4!pp! b4 | %59
!mp! ^f4!pp! ^f'4 |!mp! c4!pp! c'4 |!mp! b4!pp! b'4 |!mp! B4!pp! b4 |!mp! ^f4!pp! ^f'4 |!p! c8 | %65
 g8 |!>(! B8!>)! | ^f8 |!pp! c8 | b8 | B8 | !fermata!^f8 |] %72
V:2
 A,,8 | E,,8 | G,,8 | D,,8 | A,,8 | [C,,C,]8 | G,,8 | D,,8 | [A,,,E,,]8 | [E,,,E,,]8 | [G,,,G,,]8 | %11
 [D,,,D,,]8 | [A,,,A,,]8 | [C,,G,,]8 | [G,,,G,,]8 | [D,,,D,,]8 | [A,,,E,,]8 | [E,,,E,,]8 | %18
 [G,,,D,,]8 | [D,,,D,,]8 | [A,,,E,,]8 | [C,,G,,C,]8 | [G,,,D,,]8 | [D,,,D,,]8 || E,4 E,2 ^F,2 | %25
 E,,8 | D,4 D,2 E,2 | A,,2 E,2 D,2 A,,B,, | E,4 E,2 ^F,2 | G,2 A,2 G,2 ^F,2 | D,4 D,2 E,2 | %31
 A,,2 E,2 D,2 A,,B,, || E,2 B,2 [E,A,]2 ^F,2 | G,2 ^F,2 E,2 B,,2 | D,2 A,2 [D,G,]2 E,2 | %35
 [A,,^F,]2 E,2 D,2 A,,B,, | E,2 B,2 [E,A,]2 ^F,2 | E,2 A,2 G,2 ^F,2 | D,2 A,2 [D,G,]2 E,2 | %39
 [A,,^F,]2 E,2 D,2 A,,B,, || z2 !tenuto![B,C]2 !tenuto![A,C]2 !tenuto![^F,A,C]2 | %41
 z2 !tenuto![^F,G,]2 !tenuto![E,G,]2 !tenuto![B,,G,]2 | %42
 z2 !tenuto![A,B,]2 !tenuto![D,G,B,]2 !tenuto![E,G,B,]2 | %43
 z2 !tenuto![E,^F,]2 !tenuto![D,F,]2 [A,,F,]B,, | %44
 z2 !tenuto![B,C]2 !tenuto![A,C]2 !tenuto![^F,A,C]2 | %45
 !tenuto![B,C]2 !tenuto![A,C]2 !tenuto![G,C]2 !tenuto![^F,C]2 | %46
 z2 !tenuto![A,B,]2 !tenuto![D,G,B,]2 !tenuto![E,G,B,]2 | %47
 z2 !tenuto![E,^F,]2 !tenuto![D,F,]2 [A,,F,]B,, || %48
 A,,/C,/E,/A,/ A,,/C,/E,/A,/ A,,/C,/E,/A,/ A,,/C,/E,/A,/ | %49
 E,,/B,,/E,/G,/ E,,/B,,/E,/G,/ E,,/B,,/E,/G,/ E,,/B,,/E,/G,/ | %50
 G,,/B,,/D,/G,/ G,,/B,,/D,/G,/ G,,/B,,/D,/G,/ G,,/B,,/D,/G,/ | %51
 D,,/A,,/D,/^F,/ D,,/A,,/D,/F,/ D,,/A,,/D,/F,/ D,,/A,,/D,/F,/ | %52
 A,,/C,/E,/A,/ A,,/C,/E,/A,/ A,,/C,/E,/A,/ A,,/C,/E,/A,/ | %53
 C,,/G,,/C,/E,/ C,,/G,,/C,/E,/ C,,/G,,/C,/E,/ C,,/G,,/C,/E,/ | %54
 G,,/B,,/D,/G,/ G,,/B,,/D,/G,/ G,,/B,,/D,/G,/ G,,/B,,/D,/G,/ | %55
 D,,/A,,/D,/^F,/ D,,/A,,/D,/F,/ D,,/A,,/D,/F,/ D,,/A,,/D,/F,/ ||[K:treble] z4 a4 | z4 e4 | z4 g4 | %59
 z4 d4 | z4 a4 | z4 c4 | z4 g4 | z4 d4 | A8 | E8 | G8 | D8 | A8 | C8 | G8 | !fermata!D8 |] %72
V:3
 x8 | x8 | x8 | x8 | x8 | x8 | x8 | x8 | x8 | x8 | x8 | x8 | x8 | x8 | x8 | x8 | E,8 | B,,8 | D,8 | %19
 A,,8 | E,8 | x8 | D,8 | A,,8 || C8 |[K:treble] G8 | B,8 | x8 | z2 B,2 A,4 | x8 | z2 C2 B,4 | x8 || %32
 x8 | x8 | x8 | x8 | x8 | x8 | x8 | x8 || x8 | x8 | x8 | x8 | x8 | x8 | x8 | x8 || x8 | x8 | x8 | %51
 x8 | x8 | x8 | x8 | x8 || x8 | x8 | x8 | x8 | x8 | x8 | x8 | x8 | x8 | x8 | x8 | x8 | x8 | x8 | %70
 x8 | x8 |] %72
V:4
 x8 | x8 | x8 | x8 | x8 | x8 | x8 | x8 | x8 | x8 | x8 | x8 | x8 | x8 | x8 | x8 | x8 | x8 | x8 | %19
 x8 | x8 | x8 | x8 | x8 || [A,,C,]8 | B,,2 ^F,2 E,2 B,,2 | [G,,B,,]8 | D,,8 | [A,,C,]8 | [C,E,]8 | %30
 [G,,B,,]8 | D,,8 || [A,,C,]8 | [E,,B,,]8 | [G,,B,,]8 | D,,8 | [A,,C,]8 | [C,,G,,]8 | [G,,B,,]8 | %39
 D,,8 || A,,8 | E,,8 | G,,8 | D,,8 | A,,8 | C,8 | G,,8 | D,,8 || x8 | x8 | x8 | x8 | x8 | x8 | x8 | %55
 x8 ||[K:treble] A8 | C8 | G8 | D8 | A8 | C8 | G8 | D8 | x8 | x8 | x8 | x8 | x8 | x8 | x8 | x8 |] %72

